!!!OTL: CHRISTUS DER IST MEIN LEBEN
!!!ARE: Europa, Mitteleuropa, Deutschland
!!!SCT: E2166
!!!YEM: Copyright 1995, estate of Helmut Schaffrath.
**kern
*ICvox
*Ivox
*M4/4
*k[b-]
*F:
{2f
=1
4a
4g
4a
4b-
=2
2cc
4a}
{4dd
=3
4cc
4b-
4a
4g
=4
2a
4r}
{4cc
=5
4dd
4dd
4ee
4ff
=6
2dd
4cc}
{4a
=7
4g
4f
4f
4e
=8
2f}
==
!!!AGN: geistlich, Moral - Lied, Tod
!!!ONB: ESAC (Essen Associative Code) Database: ERK3
!!!AMT: simple quadruple
!!!AIN: vox
!!!EED: Helmut Schaffrath
!!!EEV: 1.0
*-
